assets/renault/mono.svg

<svg viewBox="0 0 24 24" xmlns="http://www.w3.org/2000/svg"><path d="m17.463 11.99-4.097-7.692-.924 1.707 3.213 5.985-5.483 10.283-5.482-10.283 6.406-11.99h-1.826l-6.388 11.99 6.387 12.01h1.807zm3.655 0-6.407-11.99h-1.807l-6.387 11.99 4.117 7.712.904-1.707-3.193-6.005 5.463-10.263 5.482 10.263-6.386 12.01h1.807z"/></svg>

<svg xmlns="http://www.w3.org/2000/svg" viewBox="0 0 24 24"><path d="m17.463 11.99-4.097-7.692-.924 1.707 3.213 5.985-5.483 10.283L4.69 11.99 11.096 0H9.27L2.882 11.99 9.269 24h1.807zm3.655 0L14.711 0h-1.807L6.517 11.99l4.117 7.712.904-1.707-3.193-6.005 5.463-10.263L19.29 11.99 12.904 24h1.807z"/></svg>
